X: 99
T: Pollonesse #99
M: 3/4
L: 1/16
R: Pollonesse
K: C
Q: 110
c2EF G2GA G4|ECEG GFDF E4|c2EG c2ce d2df|eceg afed cBAG|
c2EF G2GA G4|ECEG GFDF E4|c2ce d2df e2eg| afed d4c4:|
|:g4 gfed c2a2|agfe fedc d4|G,2f2 edcB c4| dfda g4f4|edcB c4C4:|

